images/development-services/number-2.svg

<svg width="202" height="295" viewBox="0 0 202 295" fill="none" xmlns="http://www.w3.org/2000/svg">
<path d="M1.85227 295V256.932L102.847 157.926C112.506 148.172 120.555 139.508 126.994 131.932C133.434 124.356 138.263 117.017 141.483 109.915C144.703 102.812 146.312 95.2367 146.312 87.1875C146.312 78.0019 144.229 70.142 140.062 63.608C135.896 56.9792 130.167 51.8655 122.875 48.267C115.583 44.6686 107.297 42.8693 98.017 42.8693C88.4527 42.8693 80.072 44.8579 72.875 48.8352C65.678 52.7178 60.0909 58.2576 56.1136 65.4545C52.2311 72.6515 50.2898 81.2216 50.2898 91.1648H0.147728C0.147728 72.6989 4.36174 56.6477 12.7898 43.0114C21.2178 29.375 32.8182 18.8163 47.5909 11.3352C62.4583 3.85416 79.5038 0.113626 98.7273 0.113626C118.235 0.113626 135.375 3.75946 150.148 11.0511C164.92 18.3428 176.379 28.3333 184.523 41.0227C192.761 53.7121 196.881 68.2007 196.881 84.4886C196.881 95.3788 194.797 106.08 190.631 116.591C186.464 127.102 179.125 138.75 168.614 151.534C158.197 164.318 143.566 179.801 124.722 197.983L74.5795 248.977V250.966H201.284V295H1.85227Z" fill="#333333" fill-opacity="0.05"/>
</svg>

<svg width="202" height="295" fill="none" xmlns="http://www.w3.org/2000/svg"><path d="M1.852 295v-38.068l100.995-99.006c9.659-9.754 17.708-18.418 24.147-25.994 6.44-7.576 11.269-14.915 14.489-22.017 3.22-7.103 4.829-14.678 4.829-22.728 0-9.185-2.083-17.045-6.25-23.579-4.166-6.629-9.895-11.742-17.187-15.341-7.292-3.598-15.578-5.398-24.858-5.398-9.564 0-17.945 1.989-25.142 5.966-7.197 3.883-12.784 9.423-16.761 16.62-3.883 7.197-5.824 15.767-5.824 25.71H.148c0-18.466 4.214-34.517 12.642-48.154 8.428-13.636 20.028-24.195 34.8-31.676C62.459 3.855 79.505.114 98.728.114c19.508 0 36.648 3.645 51.421 10.937 14.772 7.292 26.231 17.282 34.375 29.972 8.238 12.69 12.358 27.178 12.358 43.466 0 10.89-2.084 21.591-6.25 32.102-4.167 10.511-11.506 22.159-22.017 34.943-10.417 12.784-25.048 28.267-43.892 46.449L74.58 248.977v1.989h126.704V295H1.852Z" fill="#333" fill-opacity=".05"/></svg>
